Adwaita++/actions/22/im-kick-user.svg

<svg height="22" viewBox="0 0 22 22" width="22" xmlns="http://www.w3.org/2000/svg">
  <path d="m8 0c-2.2091-.0000055-4 1.7909-4 4 .0000166 2.2091 1.7909 4 4 4 2.2091.000006 4-1.7909 4-4s-1.791-4-4-4zm0 9c-4.0647.0048-7.4919 3.004-8 7h8 8c-.508-3.996-3.935-6.9952-8-7z" fill="#4285f4" transform="translate(3 3)"/>
</svg>

<svg xmlns="http://www.w3.org/2000/svg" width="22" height="22" version="1.1" viewBox="0 0 22 22">
 <defs>
  <style id="current-color-scheme" type="text/css">
   .ColorScheme-Text { color:#444444; } .ColorScheme-Highlight { color:#4285f4; }
  </style>
 </defs>
 <path class="ColorScheme-Highlight" d="M 8 0 C 5.7909 -5.5e-06 4 1.7909 4 4 C 4.0000166 6.2091 5.7909 8 8 8 C 10.2091 8.000006 12 6.2091 12 4 C 12 1.7909 10.209 0 8 0 z M 8 9 C 3.9353 9.0048 0.5081 12.004 0 16 L 8 16 L 16 16 C 15.492 12.004 12.065 9.0048 8 9 z" transform="translate(3 3)" style="fill:currentColor;"/>
</svg>
